X: 261
M: C
L: 1/8
K: Bb
V: 1
d/c/ |\
d/e/ |\
f>Bdf g>ceg | (e/d/c/B/) Ac F2~Fd/e/ | f>Bdf g>ceg | (e/d/c/B/) AF B2~Bd/e/ |
f>Bdf g>ceg | (e/d/c/B/) Ac F2~FG/A/ | B>FD<B E<BD<B | G>eF>A B2B |]
V: 2 clef=bass middle=d
z | B2B2 B2B2 | f2F2 E2e2 | B2B2 B2e2 | f2F2 B2B :|
z | [d2B2][d2B2] [e2B2][e2B2] | B2=e2 f2F2 | [d2B2][d2B2] [e2B2][e2B2] | f2F2 B2B2 |
    B2B2 e2E2 | B2=e2 f2F2 | [d2B2][d2B2] [e2B2][d2B2] | e2f2 B2B |]


